!!!!SEGMENT: pl-sa--9-a-i-9--001_haydn-joseph--cassatio-in-g-presto.krn
!!!cenid: 17xx:560
!!!COM: Haydn, Joseph
!!!COM-rismid: pe55803
!!!CDT: 1732/03/31-1809/05/31
!!!CNT: Austrian
!!!OPR: Cassatio in G
!!!OTL: Presto
!!!OMV: 001
!!!PDT:
!!!AGN: Secular; Cassation
!!!SMS-siglum: PL-SA
!!!SMS-shelfmark: 9/A I 9
!!!SMS-shelfwork: 001-001 M
!!!SMS-variant:
!!!SMS-altvar:
!!!NIFC-rismid: 1001076831
!!!system-decoration: [(s1,s2,s3)]s4
**kern	**dynam	**kern	**dynam	**kern	**dynam	**kern	**dynam
*part4	*part4	*part3	*part3	*part2	*part2	*part1	*part1
*staff4	*	*staff3	*	*staff2	*	*staff1	*
*I"Baſso	*	*I"Viola di Alllo	*	*I"Violino 2do.	*	*I"Violino Primo	*
*I'Vc.	*	*I'Va	*	*I'Vn II	*	*I'Vn I	*
*clefF4	*	*clefC3	*	*clefG2	*	*clefG2	*
*k[f#]	*	*k[f#]	*	*k[f#]	*	*k[f#]	*
*G:	*	*G:	*	*G:	*	*G:	*
*M3/8	*	*M3/8	*	*M3/8	*	*M3/8	*
=1	=1	=1	=1	=1	=1	=1	=1
!LO:TX:a:t=P:w źródle zapisane metrum 3/4; powinno być 3/8:problem	!	!	!	!LO:TX:a:t=P:w źródle zapisane metrum 3/4; powinno być 3/8:problem	!	!	!
!LO:TX:a:t=P:wszystkie nuty mają caudy z prawej strony:problem	!	!	!	!	!	!	!
!LO:TX:a:t=P:wszystkie ogonki nut z caudami w dół po prawej stronie:problem	!	!	!	!	!	!	!
!LO:TX:a:Bi:t=Presto.	!	!LO:TX:a:Bi:t=Presto	!	!LO:TX:a:Bi:t=Presto	!	!LO:TX:a:Bi:t=Presto.	!
!	!	!	!	!	!	!	!LO:DY:a
8GG/	.	8r	.	8r	.	8g 8B/	p
!	!	!	!LO:DY:a:t=%s&colon;	!	!	!	!
8r	.	(<8B/L	p	8d/L	.	8r	.
8r	.	8G/J)	.	8B/J	.	8r	.
=2	=2	=2	=2	=2	=2	=2	=2
!LO:TX:a:t=P:w źródle cauda po lewej stronie; ogonek nuty po lewej stronie:problem	!	!	!	!	!	!	!
8D\	.	8r	.	8r	.	8f# 8A/	.
8r	.	8A/L	.	(<8c/L	.	8r	.
8r	.	8c/J	.	8A/J)	.	8r	.
=3	=3	=3	=3	=3	=3	=3	=3
*	*	*	*	*	*	*^	*
8D\	.	8r	.	8r	.	8dd/	8f#\	.
8r	.	(>8f#\L	.	(<8a/L	.	8r	4ryy	.
8r	.	8d\J)	.	8f#/J)	.	8r	.	.
=4	=4	=4	=4	=4	=4	=4	=4	=4
8G\	.	8r	.	8r	.	8b/	8g\	.
8r	.	(>8B\L	.	8g/L	.	8r	4ryy	.
8r	.	8g\J)	.	8b/J	.	8r	.	.
*	*	*	*	*	*	*v	*v	*
=5	=5	=5	=5	=5	=5	=5	=5
!	!LO:DY:a	!	!	!	!	!	!LO:DY:a
8G\L	f	4.r	.	4.r	.	8ggL 8b 8d/	f
8B\	.	.	.	.	.	8dd/	.
8G\J	.	.	.	.	.	8dd/J	.
=6	=6	=6	=6	=6	=6	=6	=6
!	!	!	!LO:DY:a	!	!LO:DY:a	!	!
4D\	.	8f#\L	f	8aaL 8cc 8e/	f	4dd\	.
.	.	8a\	.	8cc/	.	.	.
8r	.	8f#\J	.	8cc/J	.	16cc\LL	.
.	.	.	.	.	.	16a\JJ	.
=7	=7	=7	=7	=7	=7	=7	=7
8G\L	.	4g\	.	8b/	.	8ggL 8b 8d/	.
8B\	.	.	.	8r	.	8dd/	.
8G\J	.	8r	.	8r	.	8dd/J	.
=8	=8	=8	=8	=8	=8	=8	=8
4D\	.	8f#\L	.	8aaL 8cc 8d/	.	4dd\	.
.	.	8a\	.	8cc/	.	.	.
8r	.	8f#\J	.	8cc/J	.	(>16cc\LL	.
.	.	.	.	.	.	16a\JJ)	.
=9	=9	=9	=9	=9	=9	=9	=9
4G\	.	4g\	.	4b/	.	8g/	.
.	.	.	.	.	.	(>16cc\LL	.
.	.	.	.	.	.	16b\)	.
8r	.	8r	.	8r	.	(>16ee\	.
.	.	.	.	.	.	16dd\JJ)	.
=10	=10	=10	=10	=10	=10	=10	=10
4.r	.	4.r	.	4.r	.	(>16gg\LL	.
.	.	.	.	.	.	16ff#\)	.
.	.	.	.	.	.	(>16aa\	.
.	.	.	.	.	.	16gg\)	.
.	.	.	.	.	.	(>16bb\	.
.	.	.	.	.	.	16gg\JJ)	.
=11	=11	=11	=11	=11	=11	=11	=11
8D\L	.	8d\L	.	8r	.	4dd\	.
8D\	.	8d\	.	8b/L	.	.	.
8D\J	.	8d\J	.	8a/J	.	8cc\	.
=12	=12	=12	=12	=12	=12	=12	=12
!LO:TX:a:t=P:mixed beam:problem	!	!	!	!	!	!	!
8G\L	.	8g\L	.	4g/	.	8b\	.
8BB/	.	8B\	.	.	.	8r	.
8D/J	.	8d\J	.	8r	.	8r	.
!	!	!	!	!	!	!LO:LB:g=original	!
=13	=13	=13	=13	=13	=13	=13	=13
!	!	!	!LO:DY:a:t=%s&colon;	!	!	!	!
8GG/	.	8G/L	p	8r	.	8g 8B/	.
8r	.	(<8B/	.	8d/L	.	8r	.
8r	.	8G/J)	.	8B/J	.	8r	.
=14	=14	=14	=14	=14	=14	=14	=14
8D\	.	8r	.	8r	.	8f# 8A/	.
8r	.	(<8A/L	.	(<8c/L	.	8r	.
8r	.	8c/J)	.	8A/J)	.	8r	.
=15	=15	=15	=15	=15	=15	=15	=15
*	*	*	*	*	*	*^	*
8D\	.	8r	.	8r	.	8cc/	8f#\	.
8r	.	(>8d\L	.	(<8a/L	.	8r	4ryy	.
8r	.	8B\J)	.	8f#/J)	.	8r	.	.
!LO:LB:g=original	!	!	!	!LO:LB:g=original	!	!	!	!
=16	=16	=16	=16	=16	=16	=16	=16	=16
8G\	.	8r	.	8r	.	8b/	8g\	.
8r	.	(>8B\L	.	8g/L	.	8r	4ryy	.
8r	.	8g\J)	.	8b/J	.	8r	.	.
!	!	!LO:LB:g=original	!	!	!	!	!	!
*	*	*	*	*	*	*v	*v	*
=17	=17	=17	=17	=17	=17	=17	=17
!	!	!	!	!	!	!	!LO:DY:a
4G\	.	4b 4d 4G/	.	4gg 4b 4d/	.	4bb\	f
8G\	.	8r	.	8r	.	16b\LL	.
.	.	.	.	.	.	16cc#X\JJ	.
=18	=18	=18	=18	=18	=18	=18	=18
!	!	!	!	!	!	!LO:TX:a:t=P:mixed beam:problem	!
4F#\	.	4d\	.	4e/	.	16dd\LL	.
.	.	.	.	.	.	16a/	.
.	.	.	.	.	.	16g/	.
.	.	.	.	.	.	16f#/	.
8G#X\	.	8B/	.	8r	.	16e/	.
.	.	.	.	.	.	16d/JJ	.
=19	=19	=19	=19	=19	=19	=19	=19
8A\	.	8A/	.	8r	.	16c#X/LL	.
.	.	.	.	.	.	16e/	.
8r	.	8r	.	(>8cc#X\L	.	16g/	.
.	.	.	.	.	.	16e/	.
8r	.	8r	.	8ee\J)	.	16f#/	.
.	.	.	.	.	.	16d/JJ	.
=20	=20	=20	=20	=20	=20	=20	=20
8AA/	.	(>16c#X\LL	.	8r	.	8A/	.
.	.	16e\	.	.	.	.	.
8r	.	(>16g\)	.	(>8dd\L	.	8r	.
.	.	16e\	.	.	.	.	.
8r	.	16f#\	.	8ee\J)	.	8r	.
.	.	16d\JJ)	.	.	.	.	.
=21	=21	=21	=21	=21	=21	=21	=21
8AA/	.	8A/	.	8r	.	16c#X/LL	.
.	.	.	.	.	.	16e/	.
!	!	!	!	!LO:SIC:s=8cc#:v	!	!	!
8r	.	8r	.	(>8cc\L	.	(<16g/	.
.	.	.	.	.	.	16e/	.
8r	.	8r	.	8dd\J)	.	16f#/	.
.	.	.	.	.	.	16d/JJ)	.
=22	=22	=22	=22	=22	=22	=22	=22
8AA/	.	(>16c\LL	.	8r	.	8A/	.
.	.	16e\	.	.	.	.	.
!	!	!	!	!LO:SIC:s=8cc#:v	!	!	!
8r	.	16g\	.	8cc\L	.	8r	.
.	.	16e\)	.	.	.	.	.
8r	.	16f#\	.	8dd\J	.	8r	.
.	.	16d\JJ	.	.	.	.	.
=23	=23	=23	=23	=23	=23	=23	=23
8AA/	.	8A/	.	8r	.	(>16cc#X\LL	.
.	.	.	.	.	.	16ee\	.
8r	.	8r	.	8c#X/L	.	16gg\	.
.	.	.	.	.	.	16ee\	.
8r	.	8r	.	8d/J	.	16ff#\	.
.	.	.	.	.	.	16dd\JJ)	.
!	!	!	!	!	!	!LO:LB:g=original	!
=24	=24	=24	=24	=24	=24	=24	=24
4AA/	.	4.e\	.	4.B/	.	16cc#X\LL	.
.	.	.	.	.	.	16dd\	.
.	.	.	.	.	.	(>16ee\	.
.	.	.	.	.	.	16cc#\	.
8C#X/	.	.	.	.	.	16b\	.
.	.	.	.	.	.	16a\JJ)	.
=25	=25	=25	=25	=25	=25	=25	=25
4D\	.	4d\	.	8A/	.	8f#/	.
.	.	.	.	8r	.	8r	.
8d\	.	8r	.	(<16f#/LL	.	8r	.
.	.	.	.	16a/JJ)	.	.	.
=26	=26	=26	=26	=26	=26	=26	=26
8e\L	.	4.r	.	16g/LL	.	8r	.
.	.	.	.	16a/	.	.	.
8d\	.	.	.	(<16f#/	.	8r	.
.	.	.	.	16a/	.	.	.
.	.	.	.	.	.	16qqbb/LL	.
.	.	.	.	.	.	16qqaa/	.
.	.	.	.	.	.	16qqgg#X/JJ	.
8c#X\J	.	.	.	16e/)	.	8aa\	.
.	.	.	.	16a/JJ	.	.	.
=27	=27	=27	=27	=27	=27	=27	=27
!LO:TX:a:t=P:mixed beam:problem	!	!	!	!	!	!	!
8d\L	.	8r	.	16f#/LL	.	8a/	.
.	.	.	.	16a/	.	.	.
8D/J	.	8r	.	16dd/	.	8r	.
.	.	.	.	(<16a/	.	.	.
8r	.	8dd\	.	16f#/	.	8r	.
.	.	.	.	16a/JJ)	.	.	.
=28	=28	=28	=28	=28	=28	=28	=28
4.r	.	8ee\L	.	16g/LL	.	8r	.
.	.	.	.	16a/	.	.	.
.	.	8dd\	.	16f#/	.	8r	.
.	.	.	.	(<16a/	.	.	.
.	.	.	.	.	.	16qqbb/LL	.
.	.	.	.	.	.	16qqaa/	.
.	.	.	.	.	.	16qqgg#X/JJ	.
.	.	8cc#X\J	.	16f#/	.	8aa\	.
.	.	.	.	16a/JJ)	.	.	.
!	!	!	!	!LO:LB:g=original	!	!	!
=29	=29	=29	=29	=29	=29	=29	=29
8r	.	8dd\L	.	16f#/LL	.	8a/	.
.	.	.	.	16a/	.	.	.
8r	.	8d\J	.	(<16dd/	.	8r	.
.	.	.	.	16a/	.	.	.
8d\	.	8r	.	16f#/	.	8r	.
.	.	.	.	16a/JJ)	.	.	.
=30	=30	=30	=30	=30	=30	=30	=30
8e\L	.	4.r	.	16g/LL	.	8r	.
.	.	.	.	16a/	.	.	.
8d\	.	.	.	(<16f#/	.	8r	.
.	.	.	.	16a/	.	.	.
.	.	.	.	.	.	16qqbb/LL	.
.	.	.	.	.	.	16qqaa/	.
.	.	.	.	.	.	16qqgg#X/JJ	.
8c#X\J	.	.	.	16e/)	.	8aa\	.
.	.	.	.	16a/JJ	.	.	.
=31	=31	=31	=31	=31	=31	=31	=31
!LO:TX:a:t=P:mixed beam:problem	!	!	!	!	!	!	!
8d\L	.	8r	.	16f#/LL	.	8a/	.
.	.	.	.	16a/	.	.	.
8D/	.	8r	.	(<16dd/	.	8r	.
.	.	.	.	16a/	.	.	.
!	!	!LO:TX:a:t=P:w źródle krzyżyk za nutą:problem	!	!	!	!	!
8c#X\J	.	8cc#X\	.	16f#/	.	8r	.
.	.	.	.	16a/JJ)	.	.	.
!	!	!LO:LB:g=original	!	!	!	!	!
=32	=32	=32	=32	=32	=32	=32	=32
8d\L	.	8dd\L	.	16f#/LL	.	4.r	.
.	.	.	.	16a/	.	.	.
!	!	!LO:SIC:s=8cc#:v	!	!	!	!	!
8c#X\	.	8cc\	.	(<16e/	.	.	.
.	.	.	.	16a/	.	.	.
8B\J	.	8b\J	.	16d/)	.	.	.
.	.	.	.	16a/JJ	.	.	.
=33	=33	=33	=33	=33	=33	=33	=33
!	!	!	!	!	!	!LO:TX:a:t=P:problem:pominięty fragment	!
8A\L	.	8a\L	.	8c#X/L	.	4.ryy	.
8A\	.	8e\	.	8a/	.	.	.
8A\J	.	8e\J	.	8a/J	.	.	.
=34	=34	=34	=34	=34	=34	=34	=34
!LO:TX:a:t=P:mixed beam:problem	!	!	!	!	!	!	!
8AA/L	.	8e\L	.	8a\L	.	4.ccc#X\	.
8A\	.	8c#X\	.	8cc#X\	.	.	.
8A\J	.	8c#\J	.	8cc#\J	.	.	.
=35	=35	=35	=35	=35	=35	=35	=35
!LO:TX:a:t=P:mixed beam:problem	!	!	!	!	!	!	!
!	!	!	!	!LO:SIC:s=8cc#:v	!	!	!
8AA/L	.	8c\L	.	8cc\L	.	4.eee\	.
8A\	.	8c\	.	8ee\	.	.	.
8A\J	.	8c\J	.	8ee\J	.	.	.
!LO:LB:g=original	!	!	!	!	!	!	!
=36	=36	=36	=36	=36	=36	=36	=36
8A\L	.	8c#X\L	.	4A/	.	4.ggg\	.
8B\	.	8d\	.	.	.	.	.
8c#X\J	.	8e\J	.	8a/	.	.	.
=37	=37	=37	=37	=37	=37	=37	=37
4d\	.	4d\	.	8a/	.	4.gg\	.
.	.	.	.	8r	.	.	.
8r	.	8r	.	8r	.	.	.
=38	=38	=38	=38	=38	=38	=38	=38
8A\L	.	8a\L	.	16f#/LL	.	(>16gg\LL	.
.	.	.	.	(<16dd/	.	16ff#\)	.
8A\	.	8a\	.	16f#/	.	(>16bb\	.
.	.	.	.	16dd/	.	16aa\J)	.
8A\J	.	8a\J	.	16f#/)	.	8ddd\J	.
.	.	.	.	16dd/JJ	.	.	.
!	!	!	!	!	!	!LO:LB:g=original	!
=39	=39	=39	=39	=39	=39	=39	=39
8AA/L	.	8A/L	.	16e/LL	.	4.a\	.
.	.	.	.	16cc#X/	.	.	.
8AA/	.	8A/	.	16e/	.	.	.
.	.	.	.	16cc#/	.	.	.
8AA/J	.	8A/J	.	16e/	.	.	.
.	.	.	.	16cc#/JJ	.	.	.
!	!	!	!	!LO:LB:g=original	!	!	!
=40	=40	=40	=40	=40	=40	=40	=40
4D\	.	4d\	.	4d/	.	4.eeT>\	.
8r	.	8r	.	(>8ff#\	.	.	.
=41	=41	=41	=41	=41	=41	=41	=41
8r	.	8r	.	8dd\)	.	8dd\	.
8r	.	8r	.	8r	.	8r	.
!	!	!	!LO:DY:a:t=%s&colon;	!	!	!	!
8F#\	.	(>8a\	p	8r	.	(>8aa\	.
=42	=42	=42	=42	=42	=42	=42	=42
8D\	.	8f#\)	.	8r	.	8ff#\)	.
8r	.	8r	.	8r	.	8r	.
8r	.	8r	.	(>8ff#\	.	8r	.
=43	=43	=43	=43	=43	=43	=43	=43
8r	.	8r	.	8dd\)	.	8r	.
8r	.	8r	.	8r	.	8r	.
8F#\	.	(>8a\	.	8r	.	(>8aa\	.
=44	=44	=44	=44	=44	=44	=44	=44
(>8D\	.	8f#\)	.	8r	.	8ff#\)	.
8r	.	8r	.	8r	.	8r	.
8B--\)	.	(>8b-X\	.	(<8g/	.	8r	.
=45	=45	=45	=45	=45	=45	=45	=45
(>8A\	.	8a\)	.	8f#/)	.	8r	.
8r	.	8r	.	8r	.	8r	.
!LO:SIC:s=8B-:v	!	!	!	!	!	!	!
8B\)	.	(>8b-X\	.	8g/	.	(>8dd\	.
=46	=46	=46	=46	=46	=46	=46	=46
(>8A\	.	8a\)	.	8f#/	.	8cc#X\)	.
8r	.	8r	.	8r	.	8r	.
!LO:SIC:s=8B-:v	!	!	!	!	!	!	!
8B\)	.	8b-X\	.	8g/	.	8dd\	.
!	!	!LO:LB:g=original	!	!	!	!	!
=47	=47	=47	=47	=47	=47	=47	=47
!	!	!	!	!LO:SIC:s=8a:v	!	!	!
(>8A\	.	8a\	.	8g/	.	8cc\	.
8r	.	8r	.	8r	.	8r	.
8B\)	.	8g\	.	8g/	.	8dd\	.
=48	=48	=48	=48	=48	=48	=48	=48
4A;>\	.	4.e;>\	.	4g;>/	.	4cc;>\	.
8r	.	.	.	8r	.	8r	.
=49	=49	=49	=49	=49	=49	=49	=49
!	!LO:DY:a	!	!	!	!LO:DY:a	!	!LO:DY:a
8D`>\L	f	8d\L	.	8d'</L	f	8d'</L	f
8F#`>\	.	8f#X\	.	8f#'</	.	8f#'</	.
8A`>\J	.	8a\J	.	8a'</J	.	8a'</J	.
=50	=50	=50	=50	=50	=50	=50	=50
4d\	.	4dd\	.	4dd\	.	8dd'>\L	.
.	.	.	.	.	.	8ff#'>\	.
8r	.	8r	.	8r	.	8aa'>\J	.
=51	=51	=51	=51	=51	=51	=51	=51
8c#X\	.	8c#X\L	.	4a\	.	8.ee\L	.
4d\	.	8e\	.	.	.	.	.
.	.	.	.	.	.	(>32ff#\LL	.
.	.	.	.	.	.	32gg\JJJ)	.
.	.	8c#\J	.	8dd\	.	8ff#\	.
=52	=52	=52	=52	=52	=52	=52	=52
!LO:SIC:s=8c#:v	!	!	!	!	!	!	!
8c\	.	8c\L	.	4a\	.	8.ee\L	.
4d\	.	8e\	.	.	.	.	.
.	.	.	.	.	.	32ff#\LL	.
.	.	.	.	.	.	32gg\JJJ	.
.	.	8d\J	.	8dd\	.	8ff#\	.
!	!	!	!	!	!	!LO:LB:g=original	!
=53	=53	=53	=53	=53	=53	=53	=53
8D`>\L	.	8d\L	.	8d'</L	.	8d'</L	.
8F#`>\	.	8f#\	.	8f#'</	.	8f#'</	.
8A`>\J	.	8a\J	.	8a'</J	.	8a'</J	.
!	!	!	!	!LO:LB:g=original	!	!	!
=54	=54	=54	=54	=54	=54	=54	=54
4d\	.	4dd\	.	4dd\	.	8dd`>\L	.
.	.	.	.	.	.	8ff#`>\	.
8r	.	8r	.	8r	.	8aa`>\J	.
=55	=55	=55	=55	=55	=55	=55	=55
4G\	.	4g\	.	4.dd 4.d/	.	8.bb\L	.
.	.	.	.	.	.	(>32ccc#X\LL	.
.	.	.	.	.	.	32ddd\JJ)	.
8F#\	.	8f#\	.	.	.	8aa'\J	.
=56	=56	=56	=56	=56	=56	=56	=56
4G\	.	4g\	.	4.dd 4.d/	.	8.bb\L	.
.	.	.	.	.	.	(>32ccc\LL	.
.	.	.	.	.	.	32ddd\JJ)	.
8F#\	.	8f#\	.	.	.	8aa`>\J	.
=57	=57	=57	=57	=57	=57	=57	=57
!LO:TX:a:t=P:mixed beam:problem	!	!LO:TX:a:t=P:mixed beam:problem	!	!	!	!	!
.	.	.	.	.	.	8qqaa/	.
8d\L	.	8b\L	.	8ddL 8d/	.	8gg\L	.
8A\	.	8a\	.	8dd/	.	8ff#\	.
8AA/J	.	8A/J	.	8cc#X/J	.	8ee\J	.
=58	=58	=58	=58	=58	=58	=58	=58
.	.	.	.	.	.	8qqee/	.
4D\	.	4d\	.	4dd\	.	4dd\	.
8r	.	8r	.	8r	.	8r	.
!	!	!	!	!LO:TX:a:t=P:ozdobna podwójna kreska taktowa &colon;||&colon;:problem	!	!LO:TX:a:t=P:ozdobna podwójna kreska taktowa &colon;||&colon;:problem	!
!LO:TX:a:t=P:ozdobna podwójna kreska taktowa &colon;||&colon;:problem	!	!LO:TX:a:t=P:ozdobna podwójna kreska taktowa &colon;||&colon;:problem	!	!	!	!	!
!LO:LB:g=original	!	!	!	!	!	!	!
=59||;;	=59||	=59||;>	=59||	=59||;>	=59||	=59||;>	=59||
*	*	*	*	*	*	*^	*
8D\	.	8r	.	8r	.	8dd/	8f#\	.
8r	.	(>8f#\L	.	8a/L	.	8r	4ryy	.
8r	.	8d\J)	.	8f#/J	.	8r	.	.
=60	=60	=60	=60	=60	=60	=60	=60	=60
8A\	.	8r	.	8r	.	8cc#X/	8e\	.
8r	.	8e\L	.	8g/L	.	8r	4ryy	.
8r	.	8g\J	.	8e/J	.	8r	.	.
=61	=61	=61	=61	=61	=61	=61	=61	=61
8A\	.	8r	.	8r	.	8gg/	8cc#X\	.
8r	.	(>8g\L	.	(>8ee\L	.	8r	4ryy	.
8r	.	8e\J)	.	8cc#X\J)	.	8r	.	.
=62	=62	=62	=62	=62	=62	=62	=62	=62
8d\	.	8r	.	8r	.	8ff#/	8dd\	.
8r	.	8f#\L	.	(>8dd\L	.	8r	4ryy	.
8r	.	8a\J	.	8ff#\J)	.	8r	.	.
*	*	*	*	*	*	*v	*v	*
=63	=63	=63	=63	=63	=63	=63	=63
!	!LO:DY:a	!	!	!	!	!LO:TX:a:t=P:mixed beam:problem	!LO:DY:a
4D\	f	4d\	.	8d/	.	8d`<'>/L	f
.	.	.	.	4r	.	(>8aa\	.
8r	.	8r	.	.	.	8ff#\J)	.
!	!	!LO:LB:g=original	!	!	!	!	!
=64	=64	=64	=64	=64	=64	=64	=64
!	!	!	!	!	!	!LO:TX:a:t=P:mixed beam:problem	!
8r	.	8r	.	8r	.	8dd\L	.
(>8D\L	.	8d\L	.	8d/L	.	(<8d/	.
8D#X\J)	.	8d#X\J	.	8d#X/J	.	8d#X/J)	.
!	!	!	!	!	!	!LO:LB:g=original	!
=65	=65	=65	=65	=65	=65	=65	=65
!	!	!	!	!	!	!LO:TX:a:t=P:mixed beam:problem	!
4E\	.	8e\	.	4e/	.	8e/L	.
.	.	8r	.	.	.	(>8bb\	.
8r	.	8r	.	8r	.	8gg\J)	.
=66	=66	=66	=66	=66	=66	=66	=66
!	!	!	!	!	!	!LO:TX:a:t=P:mixed beam:problem	!
8r	.	8r	.	8r	.	8ee\L	.
8E\L	.	(>8e\L	.	8e/L	.	8e/	.
8Dn\J	.	8dn\J)	.	8d/J	.	8d/J	.
=67	=67	=67	=67	=67	=67	=67	=67
!LO:TX:a:t=P:mixed beam:problem	!	!	!	!LO:TX:a:t=P:mixed beam:problem	!	!LO:TX:a:t=P:mixed beam:problem	!
!	!	!	!	!LO:SIC:s=8c:v	!	!	!
8Cn/L	.	8cn\L	.	8c#X/L	.	8cn/L	.
8c\	.	(>8cc\	.	8cc\	.	8cc\	.
8B\J	.	8b\J)	.	8b\J	.	8b\J	.
=68	=68	=68	=68	=68	=68	=68	=68
!LO:TX:a:t=P:mixed beam:problem	!	!LO:TX:a:t=P:mixed beam:problem	!	!	!	!	!
8A\L	.	8a\L	.	8a/L	.	8a/L	.
8AA/	.	8A/	.	8A/	.	8A/	.
8AA#X/J	.	8A#X/J	.	8A#X/J	.	8A#X/J	.
!	!	!	!	!LO:LB:g=original	!	!	!
=69	=69	=69	=69	=69	=69	=69	=69
!LO:TX:a:t=P:znak początku repetycji:problem	!	!	!	!	!	!	!
!LO:TX:a:t=P:mixed beam:problem	!	!LO:TX:a:t=P:mixed beam:problem	!	!	!	!	!
8BB/L	.	8B/L	.	[>4.B/	.	4B/	.
8B\	.	8b\	.	.	.	.	.
8A#X\J	.	8an\J	.	.	.	(>16dd#X\LL	.
.	.	.	.	.	.	16b\JJ)	.
=70	=70	=70	=70	=70	=70	=70	=70
!LO:TX:a:Bi:t=bis	!	!	!	!	!	!	!
8G\L	.	8g\L	.	4.B/_>	.	(>16ee\LL	.
.	.	.	.	.	.	16gg\)	.
8F#\	.	8f#\	.	.	.	(>16ff#\	.
.	.	.	.	.	.	16aa\)	.
8E\J	.	8e\J	.	.	.	(>16gg\	.
.	.	.	.	.	.	16bb\JJ)	.
!LO:TX:a:t=P:znak końca repetycji:problem	!	!	!	!	!	!	!
=71	=71	=71	=71	=71	=71	=71	=71
*rep	*	*	*	*	*	*	*
!LO:TX:a:t=P:powtórzenie taktów oznaczone znakami repetycji:problem	!	!	!	!	!	!	!
!LO:TX:a:t=P:mixed beam:problem	!	!	!	!LO:TX:a:t=P:mixed beam:problem	!	!	!
8BB/L	.	[>4.b\	.	8B/L]	.	4b\	.
8B\	.	.	.	8b\	.	.	.
8A#X\J	.	.	.	8a\J	.	(>16dd#X\LL	.
.	.	.	.	.	.	16b\JJ)	.
=72	=72	=72	=72	=72	=72	=72	=72
8G\L	.	(>4.b\]	.	8g/L	.	(>16ee\LL	.
.	.	.	.	.	.	16gg\)	.
8F#\	.	.	.	8f#/	.	(>16ff#\	.
.	.	.	.	.	.	16aa\)	.
8E\J	.	.	.	8e/J	.	(>16gg\	.
.	.	.	.	.	.	16bb\JJ)	.
*Xrep	*	*	*	*	*	*	*
=73	=73	=73	=73	=73	=73	=73	=73
4A\	.	[>4.a\)	.	(>16b\LL	.	8cc\	.
.	.	.	.	16ee\	.	.	.
.	.	.	.	16dd\	.	8r	.
.	.	.	.	16ff#\	.	.	.
8r	.	.	.	16ee\)	.	8cc\	.
.	.	.	.	16gg\JJ	.	.	.
=74	=74	=74	=74	=74	=74	=74	=74
4D\	.	(>4.a\]	.	8ff#\	.	16ff#\LL	.
.	.	.	.	.	.	16aa\	.
.	.	.	.	8r	.	16gg\	.
.	.	.	.	.	.	16bb\	.
8r	.	.	.	8f#/	.	16aa\	.
.	.	.	.	.	.	16ccc\JJ	.
=75	=75	=75	=75	=75	=75	=75	=75
4G\	.	[>4.g\)	.	(>16b\LL	.	8bb\	.
.	.	.	.	16dd\	.	.	.
.	.	.	.	16cc\	.	8r	.
.	.	.	.	16ee\	.	.	.
8r	.	.	.	16dd\)	.	8b\	.
.	.	.	.	16ff#\JJ	.	.	.
!	!	!	!	!	!	!LO:LB:g=original	!
=76	=76	=76	=76	=76	=76	=76	=76
4C/	.	(>4.g\]	.	8ee\	.	16ee\LL	.
.	.	.	.	.	.	16gg\	.
.	.	.	.	8r	.	16ff#\	.
.	.	.	.	.	.	16aa\	.
8r	.	.	.	8e/	.	16gg\	.
.	.	.	.	.	.	16bb\JJ	.
=77	=77	=77	=77	=77	=77	=77	=77
4F#\	.	(4.f#\)	.	16a\LL	.	8aa\	.
.	.	.	.	(>16cc#X\	.	.	.
.	.	.	.	16b\	.	8r	.
.	.	.	.	16dd#X\	.	.	.
8r	.	.	.	16cc#\	.	8a\	.
.	.	.	.	16ee\JJ)	.	.	.
=78	=78	=78	=78	=78	=78	=78	=78
4BB/	.	4e\)	.	8dd#X\	.	(>16dd#X\LL	.
.	.	.	.	.	.	16ff#\)	.
.	.	.	.	4r	.	(>16ee\	.
.	.	.	.	.	.	16gg\)	.
8r	.	8d#X\	.	.	.	(>16ff#\	.
.	.	.	.	.	.	16aa\JJ)	.
=79	=79	=79	=79	=79	=79	=79	=79
4E\	.	4e\	.	[>4.b\	.	8.gg\L	.
.	.	.	.	.	.	32aa\LL	.
.	.	.	.	.	.	32bb\JJ	.
!LO:TX:a:t=P:w źródle kropka nad nutą 8D#:problem	!	!	!	!	!	!	!
8D#X\	.	8f#\	.	.	.	8ff#\J	.
=80	=80	=80	=80	=80	=80	=80	=80
4E\	.	8g\L	.	4.b\]	.	8.gg\L	.
.	.	8g\	.	.	.	.	.
.	.	.	.	.	.	32aa\LL	.
.	.	.	.	.	.	32bb\JJ	.
8F#\	.	8g\J	.	.	.	8dd#X\J	.
!LO:LB:g=original	!	!	!	!	!	!	!
=81	=81	=81	=81	=81	=81	=81	=81
8G\L	.	8g\L	.	8b\L	.	4.ee\	.
8G\	.	8g\	.	8b\	.	.	.
8G\J	.	8g\J	.	8b\J	.	.	.
!	!	!LO:LB:g=original	!	!	!	!	!
=82	=82	=82	=82	=82	=82	=82	=82
!	!	!LO:TX:a:t=P:problem:pominięty fragment	!	!	!	!	!
8G\L	.	4.ryy	.	8b\L	.	4.eee\	.
8G\	.	.	.	8b\	.	.	.
8G\J	.	.	.	8b\J	.	.	.
!	!	!	!	!LO:LB:g=original	!	!	!
=83	=83	=83	=83	=83	=83	=83	=83
8A\L	.	8a\L	.	8cc/L	.	4.ccc\	.
16A\L	.	16a\L	.	16cc/L	.	.	.
16G\	.	16g\	.	16b/	.	.	.
16F#\	.	16f#\	.	16a/	.	.	.
16E\JJ	.	16e\JJ	.	16g/JJ	.	.	.
=84	=84	=84	=84	=84	=84	=84	=84
4D#X\	.	4d#X\	.	4f#/	.	8ccc\L	.
.	.	.	.	.	.	16bb\L	.
.	.	.	.	.	.	16aa\	.
8D#\	.	8d#\	.	8b/	.	16gg\	.
.	.	.	.	.	.	16ff#\JJ	.
=85	=85	=85	=85	=85	=85	=85	=85
!LO:TX:a:t=P:mixed beam:problem	!	!LO:TX:a:t=P:mixed beam:problem	!	!	!	!	!
8E\L	.	8e\L	.	8b/L	.	8gg\L	.
8B\	.	8b\	.	8g/	.	8ee\	.
8BB/J	.	8B/J	.	8f#/J	.	8dd#X\J	.
=86	=86	=86	=86	=86	=86	=86	=86
4E\	.	8e\	.	4e/	.	8ee\	.
.	.	8r	.	.	.	8r	.
8r	.	8r	.	8r	.	16bb\LL	.
.	.	.	.	.	.	16gg\JJ	.
=87	=87	=87	=87	=87	=87	=87	=87
8e`>\L	.	8ee\L	.	8ee\L	.	8ee\L	.
8B`>\	.	8b\	.	8b\	.	8b\	.
8G`>\J	.	8g\J	.	8g\J	.	8g\J	.
=88	=88	=88	=88	=88	=88	=88	=88
4E\	.	4e\	.	4.e/	.	4e/	.
8r	.	8r	.	.	.	8r	.
!	!	!	!	!	!	!LO:LB:g=original	!
=89	=89	=89	=89	=89	=89	=89	=89
!LO:N:vis=0	!	!LO:N:vis=0	!	!LO:N:vis=0	!	!	!
2.r	.	2.r	.	2.r	.	(>8bb\L	.
.	.	.	.	.	.	8gg#X\)	.
.	.	.	.	.	.	8ffn\J	.
=90	=90	=90	=90	=90	=90	=90	=90
.	.	.	.	.	.	8dd\L	.
.	.	.	.	.	.	8b\	.
.	.	.	.	.	.	8g#X\J	.
=91	=91	=91	=91	=91	=91	=91	=91
4.G#X\	.	4.B/	.	4d/	.	4fn/	.
.	.	.	.	16c/LL	.	16e/LL	.
.	.	.	.	16B/JJ	.	16d/JJ	.
=92	=92	=92	=92	=92	=92	=92	=92
4A\	.	8c\	.	4A/	.	8c/L	.
.	.	8r	.	.	.	8g#X/	.
8r	.	8r	.	8r	.	8a/J	.
=93	=93	=93	=93	=93	=93	=93	=93
!	!	!	!	!	!	!LO:SIC:s=8fn:v	!
8Fn\L	.	8fn\L	.	8fn/L	.	8f#/L	.
16E\L	.	16e\L	.	16e/L	.	16e/L	.
16D\	.	16d\	.	16d/	.	16d/	.
16C\	.	16c\	.	16c/	.	16c/	.
16BB\JJ	.	16B\JJ	.	16B/JJ	.	16B/JJ	.
=94	=94	=94	=94	=94	=94	=94	=94
4AA/	.	4A/	.	4A/	.	4A/	.
8r	.	8r	.	8r	.	8r	.
=95	=95	=95	=95	=95	=95	=95	=95
!	!	!	!	!	!	!	!LO:DY:a
4F#X\	.	4d\	.	4a 4d/	.	8aaL 8cc 8c/	f
.	.	.	.	.	.	8cc/	.
8r	.	8r	.	8r	.	8cc/J	.
=96	=96	=96	=96	=96	=96	=96	=96
4G\	.	4d\	.	4gg 4b 4d/	.	(>16cc\LL	.
.	.	.	.	.	.	16b\	.
.	.	.	.	.	.	16ee\)	.
.	.	.	.	.	.	16dd\J	.
8r	.	8r	.	8r	.	8dd`>\J	.
=97	=97	=97	=97	=97	=97	=97	=97
4F#\	.	4d\	.	4a 4d/	.	8aaL 8cc 8d/	.
.	.	.	.	.	.	8cc/	.
8r	.	8r	.	8r	.	8cc/J	.
=98	=98	=98	=98	=98	=98	=98	=98
4G\	.	4d\	.	4gg 4b 4d/	.	(>16cc\LL	.
.	.	.	.	.	.	16b\	.
.	.	.	.	.	.	16ee\)	.
.	.	.	.	.	.	16dd\J	.
8r	.	8r	.	8r	.	8dd`>\J	.
!	!	!	!	!	!	!LO:LB:g=original	!
=99	=99	=99	=99	=99	=99	=99	=99
8BB/L	.	8B\L	.	8dd\L	.	8dd\L	.
8C/	.	8c\	.	16cc\L	.	16cc\L	.
.	.	.	.	16b\	.	16b\	.
8C#X/J	.	8c#X\J	.	16a\	.	16a\	.
.	.	.	.	16g\JJ	.	16g\JJ	.
!	!	!LO:LB:g=original	!	!LO:LB:g=original	!	!	!
=100	=100	=100	=100	=100	=100	=100	=100
8D\L	.	8d\L	.	4d/	.	4d/	.
16E\L	.	16e\L	.	.	.	.	.
16D\	.	16d\	.	.	.	.	.
16E\	.	16e\	.	8r	.	8r	.
16F#\JJ	.	16f#\JJ	.	.	.	.	.
!LO:LB:g=original	!	!	!	!	!	!	!
=101	=101	=101	=101	=101	=101	=101	=101
!	!	!LO:TX:a:t=P:mixed beam:problem	!	!	!	!	!
8G\	.	8g\L	.	8r	.	8g 8B/	.
8r	.	8B/	.	8d/L	.	8r	.
8r	.	8G/J	.	8B/J	.	8r	.
=102	=102	=102	=102	=102	=102	=102	=102
8D\	.	8r	.	8r	.	8f# 8A/	.
8r	.	8A/L	.	8c/L	.	8r	.
8r	.	8c/J	.	8A/J	.	8r	.
=103	=103	=103	=103	=103	=103	=103	=103
*	*	*	*	*	*	*^	*
8D\	.	8r	.	8r	.	8cc/	8f#\	.
8r	.	(<8c/L	.	8a/L	.	8r	4ryy	.
8r	.	8A/J)	.	8f#/J	.	8r	.	.
=104	=104	=104	=104	=104	=104	=104	=104	=104
8G\	.	8r	.	8r	.	8b/	8g\	.
8r	.	(>8B\L	.	8g/L	.	8r	4ryy	.
8r	.	8g\J)	.	8b/J	.	8r	.	.
*	*	*	*	*	*	*v	*v	*
=105	=105	=105	=105	=105	=105	=105	=105
!	!LO:DY:a	!	!	!	!	!	!
8G\L	f	4.r	.	4.r	.	8ggL 8b 8d/	.
8B\	.	.	.	.	.	8dd/	.
8G\J	.	.	.	.	.	8dd/J	.
=106	=106	=106	=106	=106	=106	=106	=106
4D\	.	8f#\L	.	8aaL 8a 8d/	.	4dd\	.
.	.	8a\	.	8cc/	.	.	.
8r	.	8f#\J	.	8cc/J	.	(>16cc\LL	.
.	.	.	.	.	.	16a\JJ)	.
=107	=107	=107	=107	=107	=107	=107	=107
8G\L	.	4g\	.	4b\	.	8ggL 8b 8d/	.
8B\	.	.	.	.	.	8dd/	.
8G\J	.	8r	.	8r	.	8dd/J	.
=108	=108	=108	=108	=108	=108	=108	=108
4D\	.	8f#\L	.	8aaL 8cc 8d/	.	4dd\	.
.	.	8a\	.	8cc/	.	.	.
8r	.	8f#\J	.	8cc/J	.	(>16cc\LL	.
.	.	.	.	.	.	16a\JJ)	.
=109	=109	=109	=109	=109	=109	=109	=109
4G\	.	4g\	.	4b\	.	8g\L	.
.	.	.	.	.	.	(>16cc\L	.
.	.	.	.	.	.	16b\)	.
8r	.	8r	.	8r	.	(>16ee\	.
.	.	.	.	.	.	16dd\JJ)	.
=110	=110	=110	=110	=110	=110	=110	=110
4.r	.	4.r	.	4.r	.	(>16gg\LL	.
.	.	.	.	.	.	16ff#\	.
.	.	.	.	.	.	16aa\	.
.	.	.	.	.	.	16gg\	.
.	.	.	.	.	.	16bb\)	.
.	.	.	.	.	.	16gg\JJ	.
!	!	!	!	!	!	!LO:LB:g=original	!
=111	=111	=111	=111	=111	=111	=111	=111
!LO:TX:a:t=P:problem:niepotrzebnie powtórzony fragment	!	!	!	!	!	!	!
4.r	.	4.ryy	.	4.ryy	.	4.ryy	.
=112	=112	=112	=112	=112	=112	=112	=112
8D\L	.	8d\L	.	4b/	.	4dd\	.
8D\	.	8d\	.	.	.	.	.
8D\J	.	8d\J	.	8a/	.	8cc\	.
=113	=113	=113	=113	=113	=113	=113	=113
!LO:TX:a:t=P:mixed beam:problem	!	!LO:TX:a:t=P:mixed beam:problem	!	!	!	!	!
8G\L	.	8g\L	.	4g/	.	8b\	.
8BB/	.	8B/	.	.	.	8r	.
8D/J	.	8d/J	.	8r	.	8r	.
=114	=114	=114	=114	=114	=114	=114	=114
8GG/	.	8G/L	.	8r	.	8g 8B/	.
8r	.	(<8B/	.	(<8d/L	.	8r	.
8r	.	8G/J)	.	8B/J)	.	8r	.
=115	=115	=115	=115	=115	=115	=115	=115
8D\	.	8r	.	8r	.	8f# 8A/	.
8r	.	(<8A/L	.	(<8c/L	.	8r	.
8r	.	8c/J)	.	8A/J)	.	8r	.
=116	=116	=116	=116	=116	=116	=116	=116
*	*	*	*	*	*	*^	*
8D\	.	8r	.	8r	.	8cc/	8f#\	.
8r	.	8c/L	.	(<8a/L	.	8r	4ryy	.
8r	.	8A/J	.	8f#/J)	.	8r	.	.
!	!	!	!	!LO:LB:g=original	!	!	!	!
=117	=117	=117	=117	=117	=117	=117	=117	=117
4G\	.	8r	.	8r	.	8b/	8g\	.
.	.	(>8B\L	.	(<8g/L	.	8r	4ryy	.
8r	.	8g\J)	.	8b/J)	.	8r	.	.
!	!	!LO:LB:g=original	!	!	!	!	!	!
*	*	*	*	*	*	*v	*v	*
=118	=118	=118	=118	=118	=118	=118	=118
4c\	.	4e 4G 4C/	.	4cc 4e 4G/	.	4ee 4cc 4g 4c/	.
8C/	.	8r	.	8r	.	(>16ee\LL	.
.	.	.	.	.	.	16ff#\JJ)	.
=119	=119	=119	=119	=119	=119	=119	=119
4BB/	.	4g\	.	4g 4G/	.	16gg\LL	.
.	.	.	.	.	.	16dd\	.
.	.	.	.	.	.	(>16cc\	.
.	.	.	.	.	.	16b\	.
8C#X/	.	8e\	.	8r	.	16a\)	.
.	.	.	.	.	.	16g\JJ	.
=120	=120	=120	=120	=120	=120	=120	=120
8D\	.	8d\	.	8r	.	16f#/LL	.
.	.	.	.	.	.	(<16a/	.
8r	.	8r	.	(>8ff#\L	.	16cc/	.
.	.	.	.	.	.	16a/)	.
8r	.	8r	.	8gg\J)	.	16b/	.
.	.	.	.	.	.	16g/JJ	.
=121	=121	=121	=121	=121	=121	=121	=121
8D\	.	(>16f#\LL	.	8r	.	8d/	.
.	.	16a\	.	.	.	.	.
8r	.	16cc\	.	(>8ff#\L	.	8r	.
.	.	16a\)	.	.	.	.	.
8r	.	16b\	.	8gg\J)	.	8r	.
.	.	16g\JJ	.	.	.	.	.
=122	=122	=122	=122	=122	=122	=122	=122
8D\	.	8d\	.	8r	.	16f#/LL	.
.	.	.	.	.	.	16a/	.
8r	.	8r	.	(>8ff#\L	.	(<16cc/	.
.	.	.	.	.	.	16a/	.
8r	.	8r	.	8gg\J)	.	16b/)	.
.	.	.	.	.	.	16g/JJ	.
!LO:LB:g=original	!	!	!	!	!	!LO:LB:g=original	!
=123	=123	=123	=123	=123	=123	=123	=123
8D\	.	(>16f#\LL	.	8r	.	8d/	.
.	.	16a\	.	.	.	.	.
8r	.	16cc\	.	(>8ff#\L	.	8r	.
.	.	16a\)	.	.	.	.	.
8r	.	16b\	.	8gg\J)	.	8r	.
.	.	16g\JJ	.	.	.	.	.
=124	=124	=124	=124	=124	=124	=124	=124
8D\	.	4d\	.	8r	.	16f#/LL	.
.	.	.	.	.	.	16a/	.
8r	.	.	.	8f#/L	.	(<16cc/	.
.	.	.	.	.	.	16a/	.
!	!	!	!	!	!LO:DY:a	!	!
8r	.	8r	.	8g/J	f	16b/)	.
.	.	.	.	.	.	16g/JJ	.
=125	=125	=125	=125	=125	=125	=125	=125
4D\	.	4.A/	.	4.d/	.	16f#/LL	.
.	.	.	.	.	.	16g/	.
.	.	.	.	.	.	16a/	.
.	.	.	.	.	.	16f#/	.
8F#\	.	.	.	.	.	16d/	.
.	.	.	.	.	.	16c/JJ	.
=126	=126	=126	=126	=126	=126	=126	=126
!LO:TX:a:t=P:mixed beam:problem	!	!	!	!	!	!	!
8G\L	.	4G/	.	8G/	.	4B/	.
8GG/	.	.	.	8r	.	.	.
8G\J	.	8r	.	(<16B/LL	.	8r	.
.	.	.	.	16d/JJ)	.	.	.
=127	=127	=127	=127	=127	=127	=127	=127
8A\L	.	4.r	.	16c/LL	.	8r	.
.	.	.	.	16d/	.	.	.
8G\	.	.	.	(<16B/	.	8r	.
.	.	.	.	16d/	.	.	.
.	.	.	.	.	.	16qqee/LL	.
.	.	.	.	.	.	16qqdd/	.
.	.	.	.	.	.	16qqcc#X/JJ	.
8F#\J	.	.	.	16A/)	.	8dd\	.
.	.	.	.	16d/JJ	.	.	.
=128	=128	=128	=128	=128	=128	=128	=128
!LO:TX:a:t=P:mixed beam:problem	!	!	!	!	!	!	!
8G\L	.	8r	.	16B/LL	.	8d/	.
.	.	.	.	(<16d/	.	.	.
8GG/J	.	8r	.	16g/	.	8r	.
.	.	.	.	16d/	.	.	.
8r	.	8g\	.	16B/)	.	8r	.
.	.	.	.	16d/JJ	.	.	.
=129	=129	=129	=129	=129	=129	=129	=129
!LO:TX:a:Bi:t=1	!	!	!	!	!	!	!
4.r	.	8a\L	.	16c/LL	.	8r	.
.	.	.	.	16d/	.	.	.
.	.	8g\	.	16B/	.	8r	.
.	.	.	.	16d/	.	.	.
.	.	.	.	.	.	16qqee/LL	.
.	.	.	.	.	.	16qqdd/	.
.	.	.	.	.	.	16qqcc#X/JJ	.
.	.	8f#\J	.	16A/	.	8dd\	.
.	.	.	.	16d/JJ	.	.	.
!	!	!	!	!LO:LB:g=original	!	!	!
=130	=130	=130	=130	=130	=130	=130	=130
!	!	!LO:TX:a:t=P:mixed beam:problem	!	!	!	!	!
8r	.	8g\L	.	16B/LL	.	8d/	.
.	.	.	.	(<16d/	.	.	.
8r	.	8G/J	.	16g/	.	8r	.
.	.	.	.	16d/	.	.	.
8G\	.	8r	.	16B/)	.	8r	.
.	.	.	.	16d/JJ	.	.	.
=131	=131	=131	=131	=131	=131	=131	=131
8A\L	.	4.r	.	(<16c/LL	.	8r	.
.	.	.	.	16d/	.	.	.
8G\	.	.	.	16B/)	.	8r	.
.	.	.	.	(<16d/	.	.	.
.	.	.	.	.	.	16qqee/LL	.
.	.	.	.	.	.	16qqdd/	.
.	.	.	.	.	.	16qqcc#X/JJ	.
8F#\J	.	.	.	16A/	.	8dd\	.
.	.	.	.	16d/JJ)	.	.	.
=132	=132	=132	=132	=132	=132	=132	=132
!LO:TX:a:t=P:mixed beam:problem	!	!	!	!	!	!	!
8G\L	.	8r	.	16B/LL	.	8d/	.
.	.	.	.	16d/	.	.	.
8GG/	.	8r	.	16g/	.	8r	.
.	.	.	.	16d/	.	.	.
8F#\J	.	8f#\	.	16B/	.	8r	.
.	.	.	.	16d/JJ	.	.	.
=133	=133	=133	=133	=133	=133	=133	=133
8G\L	.	8g\L	.	16B/LL	.	4.r	.
.	.	.	.	16d/	.	.	.
8F#\	.	8f#\	.	16A/	.	.	.
.	.	.	.	16d/	.	.	.
8E\J	.	8e\J	.	16G/	.	.	.
.	.	.	.	16d/JJ	.	.	.
!	!	!LO:LB:g=original	!	!	!	!LO:LB:g=original	!
=134	=134	=134	=134	=134	=134	=134	=134
!	!	!LO:TX:a:t=P:mixed beam:problem	!	!	!	!	!
!	!	!	!	!	!	!LO:TX:a:t=P:problem:pominięty fragment	!
8D\L	.	8d\L	.	8d/L	.	4.ryy	.
8D\	.	8A/	.	8d/	.	.	.
8D\J	.	8A/J	.	8d/J	.	.	.
=135	=135	=135	=135	=135	=135	=135	=135
*tremolo	*	*	*	*	*	*	*
!	!	!LO:TX:a:t=P:mixed beam:problem	!	!	!	!	!
8D\L	.	8A/L	.	8d/L	.	4.ff#\	.
8D\	.	8F#/	.	8f#/	.	.	.
8D\J	.	8f#\J	.	8f#/J	.	.	.
=136	=136	=136	=136	=136	=136	=136	=136
8D\L	.	8f#\L	.	8f#/L	.	4.aa\	.
8D\	.	8f#\	.	8a/	.	.	.
8D\J	.	8f#\J	.	8a/J	.	.	.
=137	=137	=137	=137	=137	=137	=137	=137
8F#\L	.	8F#/L	.	8.cc\L	.	4.ccc\	.
8F#\	.	8F#/	.	.	.	.	.
.	.	.	.	(>16cc\L	.	.	.
8F#\J	.	8F#/J	.	16b\	.	.	.
.	.	.	.	16a\JJ)	.	.	.
*Xtremolo	*	*	*	*	*	*	*
=138	=138	=138	=138	=138	=138	=138	=138
!	!	!	!	!LO:N:vis=8	!	!	!
4G\	.	4G/	.	4g/	.	8.eee\L	.
.	.	.	.	.	.	16eee\L	.
8r	.	8r	.	8r	.	16ddd\	.
.	.	.	.	.	.	16ccc\JJ	.
=139	=139	=139	=139	=139	=139	=139	=139
*tremolo	*	*	*	*	*	*	*
8D\L	.	8d\L	.	16B/LL	.	8bb\L	.
.	.	.	.	16g/	.	.	.
8D\	.	8d\	.	16B/	.	8ddd\	.
.	.	.	.	16g/	.	.	.
8D\J	.	8d\J	.	16B/	.	8ggg\J	.
.	.	.	.	16g/JJ	.	.	.
=140	=140	=140	=140	=140	=140	=140	=140
8D\L	.	8d\L	.	16A/LL	.	4.d/	.
.	.	.	.	16f# 16d/	.	.	.
8D\	.	8d\	.	16A/	.	.	.
.	.	.	.	16f#/	.	.	.
8D\J	.	8d\J	.	16A/	.	.	.
.	.	.	.	16f#/JJ	.	.	.
*Xtremolo	*	*	*	*	*	*	*
!	!	!	!	!LO:LB:g=original	!	!	!
=141	=141	=141	=141	=141	=141	=141	=141
4GG/	.	4G/	.	8G/	.	4.a/	.
.	.	.	.	8r	.	.	.
8r	.	8r	.	8bb\	.	.	.
=142	=142	=142	=142	=142	=142	=142	=142
8r	.	8r	.	8gg\	.	4g/	.
8r	.	8r	.	4r	.	.	.
8B\	.	(>8dd\	.	.	.	(>8ddd\	.
=143	=143	=143	=143	=143	=143	=143	=143
8G\	.	8b\)	.	8r	.	8bb\)	.
8r	.	8r	.	8r	.	8r	.
8r	.	8r	.	8bb\	.	8r	.
=144	=144	=144	=144	=144	=144	=144	=144
8r	.	8r	.	8gg\	.	8r	.
8r	.	8r	.	8r	.	8r	.
8B\	.	(>8dd\	.	8r	.	(>8ddd\	.
!LO:LB:g=original	!	!	!	!	!	!	!
=145	=145	=145	=145	=145	=145	=145	=145
8G\	.	8b\)	.	8r	.	8bb\)	.
8r	.	8r	.	8r	.	8r	.
(>8E-X\	.	(>8e-X\	.	[>8cc\	.	8r	.
=146	=146	=146	=146	=146	=146	=146	=146
8D\)	.	8d\)	.	8cc\]	.	8r	.
8r	.	8r	.	8r	.	8r	.
!	!	!	!	!LO:N:vis=8	!	!	!
(>8E-X\	.	(>8e-X\	.	(>16cc\	.	(>8gg\	.
!	!	!	!	!LO:N:vis=8	!	!	!
.	.	.	.	16r	.	.	.
=147	=147	=147	=147	=147	=147	=147	=147
8D\)	.	8d\)	.	8cc\)	.	8ff#\)	.
8r	.	8r	.	8r	.	8r	.
!LO:SIC:s=8E-:v	!	!	!	!	!	!	!
!	!	!	!	!LO:N:vis=8	!	!	!
8E\	.	(>8e-X\	.	16cc\	.	(>8gg\	.
!	!	!	!	!LO:N:vis=8	!	!	!
.	.	.	.	16r	.	.	.
!	!	!LO:LB:g=original	!	!	!	!	!
=148	=148	=148	=148	=148	=148	=148	=148
8D\	.	8d\)	.	8cc\	.	8ff#\)	.
8r	.	8r	.	8r	.	8r	.
!	!	!	!	!LO:N:vis=8	!	!	!
8E\	.	8c\	.	16cc\	.	8gg\	.
!	!	!	!	!LO:N:vis=8	!	!	!
.	.	.	.	16r	.	.	.
!	!	!	!	!	!	!LO:LB:g=original	!
=149	=149	=149	=149	=149	=149	=149	=149
4.D;>\	.	4A;>/	.	4cc;>\	.	4ff#;;\	.
.	.	8r	.	8r	.	8r	.
=150	=150	=150	=150	=150	=150	=150	=150
!	!	!	!LO:DY:a:t=%s&colon;	!	!	!	!LO:DY:a
8GG`</L	.	8G/L	f	8g/L	.	8g`</L	f
8BB`</	.	8B/	.	8b/	.	8b`</	.
8D`</J	.	8d/J	.	8dd/J	.	8dd`</J	.
=151	=151	=151	=151	=151	=151	=151	=151
4G\	.	4g\	.	4gg\	.	8gg`>\L	.
.	.	.	.	.	.	8bb`>\	.
8r	.	8r	.	8r	.	8ddd`>\J	.
=152	=152	=152	=152	=152	=152	=152	=152
!	!	!	!LO:DY:a:t=%s&colon;	!	!	!	!
4F#\	.	(>8f#\L	p	4dd\	.	(>8.aa\L	.
.	.	8a\)	.	.	.	.	.
.	.	.	.	.	.	32bb\LL	.
.	.	.	.	.	.	32ccc\JJ)	.
8G\	.	8g\J	.	8gg\	.	8bb`>\J	.
=153	=153	=153	=153	=153	=153	=153	=153
4F#\	.	(>8f#\L	.	4dd\	.	(>8.aa\L	.
.	.	8a\)	.	.	.	.	.
.	.	.	.	.	.	32bb\LL	.
.	.	.	.	.	.	32ccc\JJ)	.
8G\	.	8g\J	.	8gg\	.	8bb`>\J	.
!	!	!	!	!LO:LB:g=original	!	!	!
=154	=154	=154	=154	=154	=154	=154	=154
!	!	!	!LO:DY:a	!	!	!	!
8GG'</L	.	8G/L	f	8g/L	.	8g`</L	.
8BB'</	.	8B/	.	8b/	.	8b`</	.
8D'</J	.	8d/J	.	8dd/J	.	8dd`</J	.
=155	=155	=155	=155	=155	=155	=155	=155
4G\	.	4g\	.	4gg\	.	8gg`>\L	.
.	.	.	.	.	.	8bb`>\	.
8r	.	8r	.	8r	.	8ddd`>\J	.
=156	=156	=156	=156	=156	=156	=156	=156
4c\	.	4cc\	.	[>4.g 4.G/	.	8.ee\L	.
.	.	.	.	.	.	(>32ff#\LL	.
.	.	.	.	.	.	32gg\JJ)	.
8B\	.	8b\	.	.	.	8dd`>\J	.
=157	=157	=157	=157	=157	=157	=157	=157
4c\	.	4cc\	.	4.g] 4.G/	.	8.ee\L	.
.	.	.	.	.	.	(>32ff#\LL	.
.	.	.	.	.	.	32gg\JJ)	.
8B\	.	8b\	.	.	.	8dd`>\J	.
=158	=158	=158	=158	=158	=158	=158	=158
!LO:TX:a:t=P:mixed beam:problem	!	!LO:TX:a:t=P:mixed beam:problem	!	!	!	!	!
8c\L	.	8cc\L	.	8gL 8d/	.	8cc\L	.
8d\	.	8dd\	.	8g/	.	8b\	.
8D/J	.	8d/J	.	8f#/J	.	8a\J	.
=159	=159	=159	=159	=159	=159	=159	=159
.	.	.	.	.	.	8qqa/	.
4G\	.	4g;>\	.	4g/	.	4g/	.
8r	.	8r	.	8r	.	8r	.
!	!	!	!	!LO:TX:a:t=P:ozdobna kreska końcowa &colon;||&colon;:problem	!	!LO:TX:a:t=P:ozdobna kreska końcowa &colon;||&colon;:problem	!
!LO:TX:a:t=P:ozdobna kreska końcowa &colon;||&colon;:problem	!	!LO:TX:a:t=P:ozdobna kreska końcowa &colon;||&colon;:problem	!	!	!	!	!
==;>	==	==;>	==	==;;	==	==;	==
*-	*-	*-	*-	*-	*-	*-	*-
!!title: @{OTL};
!!!RDF**kern: > = above
!!!RDF**kern: < = below
!!!RDF**dynam: f = "for", fontstyle= "bold-italic"
!!!RDF**dynam: p = "pia", fontstyle= "bold-italic"
!!!RDF**kern: i = editorial accidental
!!!EED: Wojciech Jakubiak-Danek
!!!EST: 2020-12-01
!!!URL-scan: http://bc.bdsandomierz.pl/dlibra/publication/1275/edition/1243/content
!!!ONB-nifc: UWAGA: części Cassatio: Presto, Menuet, Adagio, Menuet, Presto
!!!ENC: Berenika Jozajtis
!!!END: 2020-05-29
